images/link_icon.svg

<svg width="48" height="48" viewBox="0 0 48 48" fill="none" xmlns="http://www.w3.org/2000/svg">
<path d="M33.25 13C39.0913 13 43.8444 17.6589 43.9963 23.4636L44 23.75V24.25C44 30.0913 39.3411 34.8444 33.5364 34.9963L33.25 35H28.75C27.7835 35 27 34.2165 27 33.25C27 32.3318 27.7071 31.5788 28.6065 31.5058L28.75 31.5H33.25C37.174 31.5 40.3699 28.3826 40.4961 24.4893L40.5 24.25V23.75C40.5 19.826 37.3826 16.6301 33.4893 16.5039L33.25 16.5H28.75C27.7835 16.5 27 15.7165 27 14.75C27 13.8318 27.7071 13.0788 28.6065 13.0058L28.75 13H33.25ZM19.25 13C20.2165 13 21 13.7835 21 14.75C21 15.6682 20.2929 16.4212 19.3935 16.4942L19.25 16.5H14.75C10.826 16.5 7.63014 19.6174 7.50388 23.5107L7.5 23.75V24.25C7.5 28.174 10.6174 31.3699 14.5107 31.4961L14.75 31.5H19.25C20.2165 31.5 21 32.2835 21 33.25C21 34.1682 20.2929 34.9212 19.3935 34.9942L19.25 35H14.75C8.9087 35 4.15555 30.3411 4.00374 24.5364L4 24.25V23.75C4 17.9087 8.65893 13.1555 14.4636 13.0037L14.75 13H19.25ZM14 22.25H34C34.9665 22.25 35.75 23.0335 35.75 24C35.75 24.9182 35.0429 25.6712 34.1435 25.7442L34 25.75H14C13.0335 25.75 12.25 24.9665 12.25 24C12.25 23.0818 12.9571 22.3288 13.8565 22.2558L14 22.25H34H14Z" fill="#212121"/>
</svg>

<svg xmlns="http://www.w3.org/2000/svg" width="48" height="48" fill="none"><path fill="#212121" d="M33.25 13c5.841 0 10.594 4.659 10.746 10.464l.004.286v.5c0 5.841-4.659 10.594-10.464 10.746L33.25 35h-4.5a1.75 1.75 0 0 1-.143-3.494l.143-.006h4.5a7.25 7.25 0 0 0 7.246-7.01l.004-.24v-.5a7.25 7.25 0 0 0-7.01-7.246l-.24-.004h-4.5a1.75 1.75 0 0 1-.143-3.494L28.75 13zm-14 0a1.75 1.75 0 0 1 .143 3.494l-.143.006h-4.5a7.25 7.25 0 0 0-7.246 7.01l-.004.24v.5a7.25 7.25 0 0 0 7.01 7.246l.24.004h4.5a1.75 1.75 0 0 1 .143 3.494L19.25 35h-4.5C8.909 35 4.156 30.341 4.004 24.536L4 24.25v-.5c0-5.841 4.659-10.594 10.464-10.746L14.75 13zM14 22.25h20a1.75 1.75 0 0 1 .144 3.494L34 25.75H14a1.75 1.75 0 0 1-.143-3.494zh20z"/></svg>
